X: 1
T: Cedar Gap
R: reel
Z: 2011 John Chambers <jc:trillian.mit.edu>
F: http://www.alltabs.com/files/cm_cedargap.tef
M: C|
L: 1/8
K: G
GE |\
DB,DG D2Ac | BGAG EFGE | DB,DG EFGA | B2 d4 d2 | edef g2ed |
BGAG EFGE | DB,DG EFGB | A2 G4 :: Bd | edef g2ed | BGAG EFGd |
edef g2ed | B2 d4 dd | e2ge d2ed | BGAG E2GE | DB,DG EFGB | A2 G4 :|
